src/lib/packages/icons/src/assets/filled/tree.svg

<svg width="24" height="24" viewBox="0 0 24 24" fill="none" xmlns="http://www.w3.org/2000/svg">
<path d="M17.712 13.82L14.351 9.50003H15.489C16.331 9.50003 16.804 8.52904 16.286 7.86404L12.797 3.38901C12.392 2.87001 11.608 2.87001 11.203 3.38901L7.71398 7.86404C7.19598 8.52904 7.66898 9.50003 8.51098 9.50003H9.64898L6.28799 13.82C5.59799 14.71 6.22799 16 7.34799 16H11.25V21C11.25 21.414 11.586 21.75 12 21.75C12.414 21.75 12.75 21.414 12.75 21V16H16.652C17.772 16 18.403 14.71 17.712 13.82Z" fill="currentColor"/>
</svg>

<svg xmlns="http://www.w3.org/2000/svg" width="24" height="24" fill="none"><path fill="currentColor" d="M17.712 13.82 14.351 9.5h1.138c.842 0 1.315-.971.797-1.636l-3.489-4.475a1.01 1.01 0 0 0-1.594 0L7.714 7.864c-.518.665-.045 1.636.797 1.636h1.138l-3.361 4.32c-.69.89-.06 2.18 1.06 2.18h3.902v5a.75.75 0 0 0 1.5 0v-5h3.902c1.12 0 1.751-1.29 1.06-2.18Z"/></svg>
